X: 388
T: Lock the door
C: anon.
O: Ireland
B: Francis O'Neill: "The Dance Music of Ireland" (1907) no. 388
R: Single jig
Z: Transcribed by Frank Nordberg - http://www.musicaviva.com
F: http://www.musicaviva.com/abc/tunes/ireland/oneill-1001/oneill-1001-038
8.abc
M: 6/8
L: 1/8
K: Em
EFE BAG|FDF AGF|EFE BAG|AGF E3|EFE BAG|FDF AGF|(B/^c/d)B AGF|E3 E2:|
||A|B2^c d2e|d2B AFD|B2^c d2e|fdB fdB|B2^c d2e| dcB AFA|(B/^c/d)B AGF|E3
E2:|
||E|E2B E2B|E2B BAB|E2B E2BB|AGF E3|E2B E2B|E2B BAB|dcB AGF|E3 E2:|
W:
W:
W: From Musica Viva - http://www.musicaviva.com
W: the Internet center for free sheet music downloads.


